X: 34501
T: Right Hip, The
R: hornpipe
M: 4/4
K: Adorian
|:cB|Ac(3ABc Acec|gdBd GdBA|GBcB EGBd|(3cBA BG AGFE|
Ac(3ABc Acea|gdBd gdBA|GBec dBGA|(3BcB AG A2:|
|:cd|e2ce Aece|AcBg dBGB|dfge fe ce|fe^df e2 fg|
afed cAce|fdBA GBEA|GBec dBGA|(3BcB AG A2:|

